X:1
T:The Swaggering
R:slip jig
M:9/8
L:1/8
K:G
A|:BGG AGE DEG|BGG GFG A2c|BGG AGE DEG|1 cBA BGE D2A:|2 cBA BGE D2c|]
|Bdd dge dBG|Bdd dBG A2c|Bdd dge dBG|cBA BGE D2c|
|Bdd dge dBG|Bdd dBG Aef|gfe dBd cBA|cBA BGE D2A|